ecoconception/src/assets/svg/logo-cntraveler.svg

<svg width="199" height="75" viewBox="0 0 199 75" fill="none" xmlns="http://www.w3.org/2000/svg">
<path d="M0.0855713 1.48797H0.705625V0.86792L0.0855713 1.48797Z" fill="black"/>
<path d="M0.374924 0.86792V7.81253H11.8253V73.7863H22.3662V7.81253H33.1965V0.86792H0.374924Z" fill="black"/>
<path d="M26.9133 19.2632H36.5448V22.2808C36.5448 22.2808 41.9599 17.775 47.375 18.6845V28.316H44.0681C44.0681 28.316 36.8341 28.6053 37.1235 33.4417V73.4972H26.8719V19.2632H26.9133ZM75.0708 18.9738H85.653L91.9776 53.9035L97.6821 19.2632H104.296L94.0444 73.7866H85.9011L75.0708 18.9738Z" fill="black"/>
<path d="M122.071 63.2455V51.2165H132.612C132.612 51.2165 135.34 73.4971 117.855 74.1171C100.08 74.7372 102.188 41.8743 102.188 41.8743C102.188 41.8743 100.989 20.5031 117.565 18.6843C117.565 18.6843 134.431 17.4855 132.943 47.2895H113.059V63.8656C113.059 63.8656 113.68 70.1901 117.896 70.1901C122.071 69.8594 122.071 63.2455 122.071 63.2455ZM121.782 30.424C121.492 22.6113 117.276 22.6113 117.276 22.6113C112.77 22.6113 112.77 30.424 112.77 30.424V42.7837H121.492C121.782 42.453 122.071 38.2367 121.782 30.424ZM166.053 63.2455V51.2165H176.594C176.594 51.2165 179.323 73.4971 161.837 74.1171C144.062 74.7372 146.17 41.8743 146.17 41.8743C146.17 41.8743 144.972 20.5031 161.548 18.6843C161.548 18.6843 178.413 17.4855 176.925 47.2895H157.042V63.8656C157.042 63.8656 157.662 70.1901 161.878 70.1901C165.764 69.8594 166.053 63.2455 166.053 63.2455ZM165.764 30.424C165.475 22.6113 161.258 22.6113 161.258 22.6113C156.753 22.6113 156.753 30.424 156.753 30.424V42.7837H165.475C165.764 42.453 165.764 38.2367 165.764 30.424ZM134.431 73.7864H144.352V0H134.431V73.7864ZM178.413 18.643H188.045V21.6606C188.045 21.6606 193.46 17.1548 198.875 18.0642V27.6957H195.568C195.568 27.6957 188.623 27.9851 188.623 32.8215V73.7864H178.372V18.643H178.413ZM47.9951 35.5498C47.9951 35.5498 45.8869 18.9737 62.1324 18.6843C62.1324 18.6843 75.9802 17.7749 75.9802 35.5498V73.7864H66.6381V70.7688C66.6381 70.7688 63.0418 74.3652 57.2959 74.3652C51.5914 74.3652 48.8632 70.4381 48.2431 68.95C46.4243 65.9324 45.8456 54.4821 48.8632 49.687C48.8632 49.687 50.9714 46.38 55.8078 43.0731C58.2053 41.585 59.7348 40.3448 60.9336 39.7661C61.5536 39.4768 62.1324 38.8567 62.4217 38.5674C62.4217 38.5674 65.7287 36.1698 66.018 35.2604V27.9851C66.018 27.9851 65.7287 22.8593 62.091 22.8593C58.4534 22.8593 57.8746 28.2745 57.8746 28.2745V35.5084H47.9951V35.5498ZM61.843 67.1725C65.4393 67.1725 66.0594 62.3361 66.0594 62.3361V41.5436C65.4393 42.1637 63.9512 43.0317 62.1324 43.9412C60.3135 45.1399 58.536 46.0493 57.916 46.6694C57.0066 47.8682 56.7172 49.3976 56.7172 49.3976V62.6668C57.0066 62.9562 57.916 67.1725 61.843 67.1725ZM44.9775 5.41514C44.3575 3.30696 43.1587 2.6869 42.2493 2.6869C39.521 2.6869 38.9423 6.61391 38.9423 8.3914C38.9423 11.1196 39.8517 13.8065 41.9599 13.8065C42.2493 13.8065 44.3575 13.8065 45.2669 11.0783L47.9951 11.9877C47.7058 12.8971 47.7058 13.4758 46.7963 14.7159C45.8869 15.9147 44.6882 17.1135 42.2906 17.1135C39.5624 17.1135 35.9661 15.2947 35.9661 9.30081C35.9247 3.59631 38.9423 0.868076 42.2493 0.868076C46.1763 0.868076 47.3751 4.46439 47.3751 5.08444L44.9775 5.41514ZM53.1209 16.5348C55.5184 16.5348 57.9573 14.7159 57.9573 10.4996C57.9573 7.77134 57.0479 4.79508 53.1209 4.79508C50.7234 4.79508 48.6152 6.90327 48.6152 10.8303C48.2845 15.0466 51.0127 16.5348 53.1209 16.5348ZM53.1209 14.4266C51.0127 14.4266 51.0127 11.409 51.0127 10.4996C51.0127 8.68076 51.3021 6.57257 53.1209 6.57257C54.9397 6.57257 55.2291 9.30081 55.2291 10.1689C54.8984 11.1196 54.8984 14.4266 53.1209 14.4266ZM67.2581 16.2454H64.5299V8.10204C64.5299 7.48199 64.5299 6.90327 63.6205 6.90327C62.7111 6.90327 62.1324 7.52332 61.2229 8.3914V16.2041H58.4947V4.79508H61.2229V6.28321C61.843 5.66316 63.0418 4.46439 64.8193 4.46439C66.3074 4.46439 67.2168 7.48199 67.2168 7.48199V16.2454H67.2581ZM77.5097 16.2454V0H74.7815V6.03519C73.5827 4.54706 72.3839 4.54706 72.0532 4.54706C69.6557 4.54706 68.1262 7.2753 68.1262 10.2516C68.1262 13.5585 69.6143 15.9561 72.0532 15.9561C73.5414 15.9561 74.4508 14.7573 74.7815 14.4679V15.6667H77.5097V16.2454ZM72.9626 7.23396C73.872 7.23396 74.4508 7.85402 74.7815 8.43273V13.2692C74.4921 13.5585 73.872 14.4679 72.9626 14.4679C71.1438 14.4679 70.8544 12.0704 70.8544 11.161C70.8544 9.92086 70.8544 7.23396 72.9626 7.23396ZM82.9248 3.59631L86.5211 0.289359H83.5036L80.7753 3.59631H82.9248ZM81.106 11.1196C81.106 13.8479 82.5941 14.1372 83.2142 14.1372C84.413 14.1372 85.033 13.2278 85.3224 12.6491L87.4306 13.5585C87.1412 14.1786 85.9424 16.5761 83.2142 16.5761C80.486 16.5761 78.3778 14.4679 78.3778 10.5409C78.3778 7.23396 80.486 4.83642 83.2142 4.83642C85.6117 4.83642 86.8105 6.32455 87.4306 7.85402C87.7199 9.05279 87.7199 9.9622 87.7199 11.161H81.106V11.1196ZM85.3224 9.34215C85.3224 7.23396 83.8342 6.61391 83.2142 6.61391C82.3048 6.61391 81.106 7.23396 81.106 9.34215H85.3224ZM96.4834 0.289359L102.519 10.8303V0.289359H105.247V16.2454H102.519L96.4834 5.08444V16.2454H93.7551V0.289359H96.4834ZM115.168 15.9561C114.878 15.336 114.878 14.4679 114.878 13.8479V8.72209C114.878 5.7045 112.481 5.12578 110.951 5.12578C109.463 5.12578 107.934 5.74583 106.735 7.23396L108.223 8.72209C108.843 7.81268 109.711 7.23396 110.621 7.23396C111.53 7.23396 112.439 7.85402 112.439 9.05279V9.34215C109.422 9.63151 106.404 10.8303 106.404 13.5585C106.404 15.3773 107.892 16.5761 109.711 16.5761C111.199 16.5761 112.109 15.6667 112.729 15.3773C112.729 15.6667 112.729 15.9974 113.018 16.5761H115.126L115.168 15.9561ZM108.843 12.9385C108.843 11.1196 111.571 10.5409 112.439 10.5409V13.2692C112.15 13.5585 110.951 14.4679 110.042 14.4679C109.422 14.1372 108.843 13.8479 108.843 12.9385ZM122.402 7.52332C121.203 6.61391 120.583 6.61391 120.004 6.61391C119.095 6.61391 118.516 7.23396 118.516 7.81268C118.516 8.72209 119.425 9.01145 120.624 9.30081C122.112 9.59017 124.551 10.2102 124.551 12.6078C124.551 14.0959 123.352 16.2041 120.045 16.2041C117.648 16.2041 116.449 15.0053 115.829 14.0959L117.317 12.8971C117.937 13.5172 118.805 14.0959 120.045 14.0959C120.955 14.0959 121.864 13.8065 121.864 12.8971C121.864 11.9877 120.955 11.6984 119.756 11.409C118.557 11.1196 115.829 10.4996 115.829 7.81268C115.829 5.99386 117.648 4.21637 119.756 4.21637C121.575 4.21637 123.063 5.12578 123.683 5.7045L122.402 7.52332ZM128.726 1.19877V4.79508H130.545V6.90327H128.726V12.9385C128.726 13.8479 129.636 13.8479 130.545 14.1372V16.5348C129.057 16.5348 128.147 16.5348 127.238 15.9147C126.329 15.2947 126.039 14.0959 126.039 12.8971V6.90327H124.51V4.79508H125.998V1.19877H128.726Z" fill="black"/>
</svg>

<svg xmlns="http://www.w3.org/2000/svg" width="199" height="75" fill="none"><path fill="#000" d="M.086 1.488h.62v-.62l-.62.62Z"/><path fill="#000" d="M.375.868v6.945h11.45v65.973h10.541V7.813h10.83V.868H.376Z"/><path fill="#000" d="M26.913 19.263h9.632v3.018s5.415-4.506 10.83-3.596v9.631h-3.307s-7.234.29-6.944 5.126v40.055H26.871V19.263h.041Zm48.158-.29h10.582l6.325 34.93 5.704-34.64h6.614L94.044 73.787h-8.143l-10.83-54.813Z"/><path fill="#000" d="M122.071 63.245V51.218h10.541s2.728 22.28-14.757 22.9c-17.775.62-15.667-32.243-15.667-32.243s-1.199-21.37 15.377-23.19c0 0 16.866-1.199 15.378 28.605h-19.884v16.577s.621 6.324 4.837 6.324c4.175-.33 4.175-6.944 4.175-6.944Zm-.289-32.821c-.29-7.813-4.506-7.813-4.506-7.813-4.506 0-4.506 7.813-4.506 7.813v12.36h8.722c.29-.331.579-4.547.29-12.36Zm44.271 32.822v-12.03h10.541s2.729 22.281-14.757 22.901c-17.775.62-15.667-32.243-15.667-32.243s-1.198-21.37 15.378-23.19c0 0 16.865-1.199 15.377 28.605h-19.883v16.577s.62 6.324 4.836 6.324c3.886-.33 4.175-6.944 4.175-6.944Zm-.289-32.822c-.289-7.813-4.506-7.813-4.506-7.813-4.505 0-4.505 7.813-4.505 7.813v12.36h8.722c.289-.331.289-4.547.289-12.36Zm-31.333 43.362h9.921V0h-9.921v73.786Zm43.982-55.143h9.632v3.018s5.415-4.506 10.83-3.597v9.632h-3.307s-6.945.29-6.945 5.125v40.965h-10.251V18.643h.041ZM47.995 35.55s-2.108-16.576 14.137-16.866c0 0 13.848-.91 13.848 16.866v38.236h-9.342V70.77s-3.596 3.596-9.342 3.596c-5.705 0-8.433-3.927-9.053-5.415-1.819-3.018-2.397-14.468.62-19.263 0 0 2.108-3.307 6.945-6.614 2.397-1.488 3.927-2.728 5.126-3.307.62-.29 1.198-.91 1.488-1.199 0 0 3.307-2.397 3.596-3.307v-7.275s-.29-5.126-3.927-5.126c-3.638 0-4.216 5.415-4.216 5.415v7.234h-9.88v.042Zm13.848 31.623c3.596 0 4.216-4.837 4.216-4.837V41.544c-.62.62-2.108 1.488-3.927 2.397-1.819 1.199-3.596 2.108-4.216 2.728-.91 1.2-1.199 2.729-1.199 2.729v13.269c.29.29 1.199 4.505 5.126 4.505ZM44.977 5.414c-.62-2.108-1.818-2.728-2.728-2.728-2.728 0-3.307 3.927-3.307 5.704 0 2.729.91 5.415 3.018 5.415.29 0 2.398 0 3.307-2.728l2.728.91c-.29.91-.29 1.488-1.199 2.728-.91 1.199-2.108 2.397-4.505 2.397-2.729 0-6.325-1.818-6.325-7.812C35.925 3.596 38.942.868 42.25.868c3.927 0 5.126 3.596 5.126 4.216l-2.398.331Zm8.144 11.12c2.397 0 4.836-1.82 4.836-6.035 0-2.729-.91-5.705-4.836-5.705-2.398 0-4.506 2.108-4.506 6.035-.33 4.217 2.398 5.705 4.506 5.705Zm0-2.108c-2.108 0-2.108-3.018-2.108-3.927 0-1.82.29-3.927 2.108-3.927 1.819 0 2.108 2.728 2.108 3.596-.33.95-.33 4.258-2.108 4.258Zm14.137 1.818H64.53V8.102c0-.62 0-1.199-.91-1.199-.909 0-1.488.62-2.397 1.488v7.813h-2.728V4.795h2.728v1.488c.62-.62 1.819-1.819 3.596-1.819 1.488 0 2.398 3.018 2.398 3.018v8.763h.041Zm10.252 0V0H74.78v6.035c-1.198-1.488-2.397-1.488-2.728-1.488-2.397 0-3.927 2.728-3.927 5.705 0 3.306 1.488 5.704 3.927 5.704 1.488 0 2.398-1.199 2.728-1.488v1.199h2.729v.578Zm-4.547-9.011c.909 0 1.488.62 1.819 1.199v4.836c-.29.29-.91 1.199-1.82 1.199-1.818 0-2.108-2.398-2.108-3.307 0-1.24 0-3.927 2.109-3.927Zm9.962-3.638L86.52.29h-3.017l-2.729 3.307h2.15Zm-1.819 7.524c0 2.728 1.488 3.017 2.108 3.017 1.199 0 1.819-.91 2.108-1.488l2.109.91c-.29.62-1.489 3.017-4.217 3.017-2.728 0-4.836-2.108-4.836-6.035 0-3.307 2.108-5.705 4.836-5.705 2.398 0 3.597 1.489 4.217 3.018.289 1.199.289 2.108.289 3.307h-6.614v-.041Zm4.216-1.778c0-2.108-1.488-2.728-2.108-2.728-.91 0-2.108.62-2.108 2.728h4.216ZM96.483.29l6.036 10.541V.29h2.728v15.955h-2.728l-6.036-11.16v11.16h-2.728V.29h2.728Zm18.685 15.667c-.29-.62-.29-1.488-.29-2.108V8.722c0-3.017-2.397-3.596-3.927-3.596-1.488 0-3.017.62-4.216 2.108l1.488 1.488c.62-.91 1.488-1.488 2.398-1.488.909 0 1.818.62 1.818 1.819v.29c-3.017.289-6.035 1.487-6.035 4.216 0 1.818 1.488 3.017 3.307 3.017 1.488 0 2.398-.91 3.018-1.199 0 .29 0 .62.289 1.2h2.108l.042-.62Zm-6.325-3.018c0-1.818 2.728-2.397 3.596-2.397v2.728c-.289.29-1.488 1.199-2.397 1.199-.62-.33-1.199-.62-1.199-1.53Zm13.559-5.415c-1.199-.91-1.819-.91-2.398-.91-.909 0-1.488.621-1.488 1.2 0 .91.909 1.198 2.108 1.488 1.488.29 3.927.91 3.927 3.307 0 1.488-1.199 3.596-4.506 3.596-2.397 0-3.596-1.199-4.216-2.108l1.488-1.199c.62.62 1.488 1.199 2.728 1.199.91 0 1.819-.29 1.819-1.199 0-.91-.909-1.199-2.108-1.488-1.199-.29-3.927-.91-3.927-3.596 0-1.82 1.819-3.597 3.927-3.597 1.819 0 3.307.91 3.927 1.489l-1.281 1.818Zm6.324-6.324v3.596h1.819v2.108h-1.819v6.035c0 .91.91.91 1.819 1.2v2.397c-1.488 0-2.398 0-3.307-.62-.909-.62-1.199-1.82-1.199-3.018V6.903h-1.529V4.795h1.488V1.2h2.728Z"/></svg>
